src/assets/svg/icons/fa/nuevos/classic/light/paintbrush-fine classic light.svg

<svg xmlns="http://www.w3.org/2000/svg" viewBox="0 0 576 512"><path d="M557.2 109.3L286.3 380.2C287.4 386.6 288 393.2 288 400C288 461.9 237.9 512 176 512H32C14.33 512 0 497.7 0 480C0 462.3 14.33 448 32 448H36.81C54.44 448 66.4 429.1 64.59 411.6C64.2 407.8 64 403.9 64 400C64 338.1 114.1 288 176 288C182.7 288 189.3 288.6 195.7 289.7L466.7 18.75C491.7-6.248 532.2-6.248 557.2 18.75C582.2 43.74 582.2 84.26 557.2 109.3L557.2 109.3zM489.3 41.37L324.6 206L369.9 251.3L534.5 86.63C547 74.13 547 53.87 534.5 41.37C522 28.88 501.8 28.88 489.3 41.37V41.37zM224.6 306L269.9 351.3L347.3 273.9L302 228.6L224.6 306zM195.9 322.5C189.5 320.9 182.9 320 176 320C131.8 320 96 355.8 96 400C96 402.8 96.14 405.6 96.43 408.3C98.15 425 93.42 441.9 83.96 455.1C74.31 468.5 58 480 36.81 480H176C220.2 480 256 444.2 256 400C256 393.1 255.1 386.5 253.5 380.1L195.9 322.5z"/></svg>

<svg xmlns="http://www.w3.org/2000/svg" viewBox="0 0 576 512"><!--! Font Awesome Pro 6.4.0 by @fontawesome - https://fontawesome.com License - https://fontawesome.com/license (Commercial License) Copyright 2023 Fonticons, Inc. --><path d="M534.5 41.4c-12.5-12.5-32.8-12.5-45.3 0L324.6 206l45.3 45.3L534.5 86.6c12.5-12.5 12.5-32.8 0-45.3zM302 228.6l-36.6 36.6 0 0L224.6 306l45.3 45.3 4.6-4.6 0 0 36.1-36.1 36.6-36.6L302 228.6zM195.9 322.5c-6.3-1.6-13-2.5-19.9-2.5c-44.2 0-80 35.8-80 80c0 2.8 .1 5.6 .4 8.3c1.7 16.7-3 33.6-12.5 46.7C74.3 468.5 58 480 36.8 480H176c44.2 0 80-35.8 80-80c0-6.9-.9-13.5-2.5-19.9l-57.7-57.7zM557.2 109.3L286.3 380.2c1.1 6.4 1.7 13.1 1.7 19.8c0 61.9-50.1 112-112 112H32c-17.7 0-32-14.3-32-32s14.3-32 32-32h4.8c17.6 0 29.6-18.9 27.8-36.4c-.4-3.8-.6-7.7-.6-11.6c0-61.9 50.1-112 112-112c6.7 0 13.3 .6 19.7 1.7l271-271c25-25 65.5-25 90.5 0s25 65.5 0 90.5z"/></svg>
